X:1
T:Title
%%score { ( 1 3 ) | 2 }
L:1/8
Q:1/4=100
M:3/4
K:F
V:1 treble nm="Grand Piano"
V:3 treble 
V:2 bass 
V:1
 [DF][^CE] [DF] | [Fd]3 [G_e] dA | c2 [DB][FB] [FA]G | F3 B F>_E |[M:3/8] D3 | [DF][^CE][DF] | %6
w: A.~H.~Ackley * *||||||
[M:3/4] [Fd]3 [G_e] [^Fd][FA] | [Ac]2 BB AG |[M:13/16] F/-F/-F-<Fdd3/2c |[M:3/8] [B,DB]3 | %10
w: ||||
 BA[B,DB] |[M:3/4] [_Ec]4 z2 | [B,_EG]2 [B,DF]B A[DB] | [Fd]4 z2 |[M:3/8] c3 | FEF | %16
w: ||||||
[M:3/4] [Fd]3 [FB] cd | [Gf]2 [G_e][GB] AG |[M:13/16] F/-F/-F-<Fdd3/2c |[M:3/8] [DB]3 |] %20
w: ||||
V:2
 [B,,B,][B,,B,] [B,,B,] | [B,,B,]3 [B,,B,] [F,B,F][F,C_E] | %2
 [F,A,_E]2 [B,,B,][D,B,] [_E,B,][E,B,E] | [F,B,D]3 [F,B,D] [F,A,C]>[F,C] |[M:3/8] [B,,F,B,]3 | %5
 [B,,B,][B,,B,][B,,B,] |[M:3/4] [B,,B,]3 [B,,B,] [D,A,][D,D] | %7
 [G,D]2 [G,DG][K:bass][G,B,D] [E,B,^C][E,B,C] | %8
[M:13/16] [F,B,D]/-[F,B,D]/-[F,B,D]-<[F,B,D][F,B,F][F,A,F]3/2[F,A,_E] |[M:3/8] B,,3 | DCB,, | %11
[M:3/4] [F,A,]F, F,[F,A,] F,F, | B,,2 B,,D C[B,,F,] | [B,,B,]B,, B,,[B,,B,] [C,B,][C,B,] | %14
[M:3/8] [F,A,F]3 | F,E,F, |[M:3/4] [B,,B,]3 [D,B,][K:treble] [F,A,F][B,F] | %17
 [_E,B,]2 [E,B,][E,B,] [=E,B,^C][E,B,C] | %18
[M:13/16] [F,B,D]/-[F,B,D]/-[F,B,D]-<[F,B,D][F,B,F][F,A,F]3/2[F,_E] |[M:3/8] [B,,F,]3 |] %20
V:3
 x3 | x6 | x6 | x6 |[M:3/8] x3 | x3 |[M:3/4] x6 | x6 |[M:13/16] x13/2 |[M:3/8] x3 | x3 | %11
[M:3/4] z A, A,[G_e] [B,_EG][CEA] | x6 | z B, B,[Fd] [Ed][Ec] |[M:3/8] x3 | x3 |[M:3/4] x6 | x6 | %18
[M:13/16] x13/2 |[M:3/8] x3 |] %20

